icons/airpodsB.svg

<svg width="24" height="24" viewBox="0 0 24 24" fill="none" xmlns="http://www.w3.org/2000/svg">
<path fill-rule="evenodd" clip-rule="evenodd" d="M3.20007 6.90002C3.20007 4.28581 5.33586 2.15002 7.95007 2.15002C10.5643 2.15002 12.7001 4.28581 12.7001 6.90002C12.7001 7.97764 12.338 8.92726 11.7604 9.73595L10.5398 8.8641C10.9621 8.27279 11.2001 7.62241 11.2001 6.90002C11.2001 5.11424 9.73586 3.65002 7.95007 3.65002C6.16429 3.65002 4.70007 5.11424 4.70007 6.90002C4.70007 8.18721 5.41281 9.24287 6.58548 9.8292L5.91466 11.1708C4.28734 10.3572 3.20007 8.81284 3.20007 6.90002Z" fill="black"/>
<path d="M6.25012 10.4001L6.75012 16.0001C6.85012 17.0001 7.75012 17.8001 8.75012 17.8001C9.75012 17.8001 10.6501 17.0001 10.7501 16.0001L11.3501 10.0001C11.2501 9.70007 11.2501 9.50007 11.2501 9.20007C10.5501 10.2001 9.35012 10.8001 8.05012 10.8001C7.35012 10.9001 6.75012 10.7001 6.25012 10.4001Z" fill="black"/>
<path fill-rule="evenodd" clip-rule="evenodd" d="M12.0001 6.8208V9.20007C12.0001 9.49312 12.003 9.58708 12.0616 9.7629L12.1123 9.91509L11.4963 16.0747C11.3574 17.4643 10.1291 18.5501 8.75007 18.5501C7.37105 18.5501 6.14275 17.4643 6.00379 16.0747L6.003 16.0668L5.37195 8.99856L6.63594 9.75696C7.0325 9.99489 7.45944 10.1268 7.944 10.0576L7.99677 10.0501H8.05007C9.1241 10.0501 10.0864 9.55459 10.6356 8.76998L12.0001 6.8208ZM8.10222 11.5498C7.74692 11.5948 7.41342 11.5799 7.10333 11.5232L7.49669 15.9289C7.55953 16.5377 8.13025 17.0501 8.75007 17.0501C9.37105 17.0501 9.94275 16.5358 10.0038 15.9254L10.508 10.8833C9.79633 11.3069 8.96432 11.5407 8.10222 11.5498Z" fill="black"/>
<path d="M18.35 15.5C19.35 15 20.05 14 20.05 12.8C20.05 11.1 18.75 9.80005 17.05 9.80005C15.35 9.80005 14.05 11.1 14.05 12.8C14.05 13.5 14.25 14.1 14.65 14.6" fill="black"/>
<path fill-rule="evenodd" clip-rule="evenodd" d="M13.3 12.8C13.3 10.6858 14.9358 9.05005 17.05 9.05005C19.1643 9.05005 20.8 10.6858 20.8 12.8C20.8 14.3094 19.9162 15.5555 18.6855 16.1709L18.0146 14.8292C18.7839 14.4446 19.3 13.6907 19.3 12.8C19.3 11.5143 18.3358 10.55 17.05 10.55C15.7643 10.55 14.8 11.5143 14.8 12.8C14.8 13.3467 14.9522 13.7772 15.2357 14.1315L14.0644 15.0686C13.5479 14.4229 13.3 13.6534 13.3 12.8Z" fill="black"/>
<path fill-rule="evenodd" clip-rule="evenodd" d="M14.5363 13.1505L15.2603 14.1642C15.6198 14.6675 16.2927 15.0501 17.05 15.0501C17.3475 15.0501 17.7305 14.9713 18.0146 14.8293L19.225 14.2241L18.6956 19.7822L18.6943 19.7931C18.5537 20.9174 17.6776 21.8501 16.45 21.8501C15.2225 21.8501 14.3464 20.9174 14.2058 19.7931L14.2042 19.7798L13.8 15.2334V15.2001C13.8 15.1912 13.8 15.1818 13.8 15.172C13.7995 14.9822 13.7984 14.6262 13.9792 14.2647L14.5363 13.1505ZM15.3887 16.1643L15.6958 19.6187C15.759 20.0872 16.0807 20.3501 16.45 20.3501C16.82 20.3501 17.142 20.0864 17.2046 19.6167L17.4995 16.5206C17.3437 16.5404 17.1923 16.5501 17.05 16.5501C16.4564 16.5501 15.8891 16.4092 15.3887 16.1643Z" fill="black"/>
</svg>

<svg xmlns="http://www.w3.org/2000/svg" fill="none" viewBox="0 0 24 24">
  <path fill="#000" fill-rule="evenodd" d="M3.2 6.9a4.762 4.762 0 0 1 4.75-4.75A4.762 4.762 0 0 1 12.7 6.9c0 1.078-.362 2.027-.94 2.836l-1.22-.872c.422-.591.66-1.242.66-1.964a3.262 3.262 0 0 0-3.25-3.25A3.262 3.262 0 0 0 4.7 6.9c0 1.287.713 2.343 1.885 2.93l-.67 1.34C4.287 10.358 3.2 8.814 3.2 6.9Z" clip-rule="evenodd"/>
  <path fill="#000" d="m6.25 10.4.5 5.6c.1 1 1 1.8 2 1.8s1.9-.8 2-1.8l.6-6c-.1-.3-.1-.5-.1-.8-.7 1-1.9 1.6-3.2 1.6-.7.1-1.3-.1-1.8-.4Z"/>
  <path fill="#000" fill-rule="evenodd" d="M12 6.82V9.2c0 .293.003.387.062.563l.05.152-.616 6.16c-.139 1.39-1.367 2.475-2.746 2.475s-2.607-1.086-2.746-2.475l-.001-.008-.631-7.068 1.264.758c.396.238.823.37 1.308.3l.053-.007h.053c1.074 0 2.036-.495 2.586-1.28L12 6.82Zm-3.898 4.73c-.355.045-.689.03-.999-.027l.394 4.406c.063.609.633 1.121 1.253 1.121.621 0 1.193-.514 1.254-1.125l.504-5.042a4.807 4.807 0 0 1-2.406.667Z" clip-rule="evenodd"/>
  <path fill="#000" d="M18.35 15.5c1-.5 1.7-1.5 1.7-2.7 0-1.7-1.3-3-3-3s-3 1.3-3 3c0 .7.2 1.3.6 1.8"/>
  <path fill="#000" fill-rule="evenodd" d="M13.3 12.8c0-2.114 1.636-3.75 3.75-3.75s3.75 1.636 3.75 3.75c0 1.51-.884 2.755-2.114 3.37l-.671-1.34c.769-.385 1.285-1.14 1.285-2.03 0-1.286-.964-2.25-2.25-2.25s-2.25.964-2.25 2.25c0 .547.152.977.436 1.332l-1.172.937c-.516-.646-.764-1.416-.764-2.269Z" clip-rule="evenodd"/>
  <path fill="#000" fill-rule="evenodd" d="m14.536 13.15.724 1.014c.36.504 1.033.886 1.79.886.297 0 .68-.079.965-.22l1.21-.606-.53 5.558v.011c-.141 1.124-1.017 2.057-2.245 2.057-1.227 0-2.104-.933-2.244-2.057l-.002-.013-.404-4.547v-.061c0-.19-.002-.546.18-.907l.556-1.115Zm.853 3.014.307 3.455c.063.468.385.731.754.731.37 0 .692-.264.755-.733l.295-3.096c-.156.02-.308.03-.45.03-.594 0-1.16-.142-1.661-.387Z" clip-rule="evenodd"/>
</svg>
